X: 37863
T: Sorry, Too Late
R: hornpipe
M: 4/4
K: Gmajor
|:dc|(3Bcd AB GDB,D|GB (3def g2 bf|(3gfe dB cdea|(3gfe (3dcB Adcd|
(3Bcd AB GDB,D|GB (3def g2 bf|(3gfe (3dcB cedc|BGAF G2:|
|:Bd|(3gag eg (3faf df|gfeg fd {e}(3d^cd|gbag gb (3agf|(3gfe (3dcB Adcd|
(3Bcd AB GDB,D|GB (3def g2 bf|(3gfe (3dcB cedc|BGAF G2:|

